X:60
T:Legacy,The. JGi.060
O:Tealby,Lincolnshire
M:6/8
L:1/8
W:Dotted crochets as shown in MS
Q:3/8=90
S:Joshua Gibbons MS,1823,Tealby,Lincs.
R:jig
Z:VMP/R.Greig, 2009
K:C
G|cdc cGE|g>ag gec|c3d e>de|A3Bc2:|
|:G|ceg c’3c’|bag age|ceg c’3c’|bag a2b|
c’3c’ bge|b2a gec|c2d ede|G2B2c2||

